src/assets/images/homepage/home/partner_logo_2.svg

<svg fill="none" height="89" viewBox="0 0 89 89" width="89" xmlns="http://www.w3.org/2000/svg" xmlns:xlink="http://www.w3.org/1999/xlink"><clipPath id="a"><path d="m25 22h39v45h-39z"/></clipPath><circle cx="44.6679" cy="44.2225" fill="#375bd2" r="44.2225"/><g clip-path="url(#a)"><path d="m44.504 31.5221 11.2608 6.4592v12.9818l-11.2291 6.4989-11.2529-6.4433v-12.9739zm0-9.5221-4.1295 2.3805-11.245 6.5227-4.1295 2.3805v22.5119l4.1295 2.3806 11.2608 6.4591 4.1296 2.3806 4.1295-2.3806 11.2211-6.5068 4.1295-2.3805v-22.5436l-4.1295-2.3806-11.2529-6.4433-4.1295-2.3805z" fill="#fff"/></g></svg>

<svg width="89" height="89" viewBox="0 0 89 89" fill="none" xmlns="http://www.w3.org/2000/svg">
<circle cx="44.6679" cy="44.2225" r="44.2225" fill="#375BD2"/>
<g clip-path="url(#clip0_5626_12243)">
<path d="M44.504 31.5221L55.7648 37.9813V50.9631L44.5357 57.462L33.2828 51.0187V38.0448L44.504 31.5221ZM44.504 22L40.3745 24.3805L29.1295 30.9032L25 33.2837V55.7956L29.1295 58.1762L40.3903 64.6353L44.5199 67.0159L48.6494 64.6353L59.8705 58.1285L64 55.748V33.2044L59.8705 30.8238L48.6176 24.3805L44.4881 22H44.504Z" fill="white"/>
</g>
<defs>
<clipPath id="clip0_5626_12243">
<rect width="39" height="45" fill="white" transform="translate(25 22)"/>
</clipPath>
</defs>
</svg>
